!! George Gerswhin, "Fidgety Feet" from
!! "Bumper Book of George Gerswhin,"
!! London: Chappell Music Ltd., 1987; pp.86-89
**kern
*M2/2
*MM[Moderato]
=1
!! Verse
4e-
4f
4g
4a-
=2
8b-
8cc
4b-
2b-
=3
2ee-
4b-
4g
=4
2b-
2f
=5
4ee-
4ee-
4b-
4g
=6
2b-
2f
=7
4r
4e-
4f
4g
=8
2.b-
4b-
=9
4e-
4f
4g
4a-
=10
8b-
8cc
4b-
2b-
=11
2ee-
4b-
4g
=12
2dd
2an
!! page 87
=13
4dd
4dd
4b-
4g
=14
2f
2en
=15
4r
4f
4g
4cc
=16
1b-
=17
4cc-
4a-
4cc-
4a-
=18
1cc-
=19
4g-
4e-
4g-
4e-
=20
1g-
!! Refrain
=21
2f
2b-
=22
8f
8f
4f#
4g
8fn
8fn
=23
4f#
4g
8fn
8f
4f#
=24
1g
=25
2g
2cc
=26
8g
8g
4g#
4an
8gn
8g
!! page 88
=27
4g#
4an
8gn
8g
4g#
=28
1an
=29
2a-
2a-
=30
4g
4f
4g
4a-
=31
1b-
=32
1cc
=33
4dd
4dd#
4een
4ddn
=34
4dd#
4een
4ddn
4dd#
=35
4een
4ddn
4bn
[(4g
=36
2g]
2f#)
=37
2fn
2b-
=38
8f
8f
4f#
4g
8fn
8f
=39
4f#
4g
8fn
8f
4f#
!! page 89
=40
1g
=41
2b-
2ee-
=42
8b-
8b-
4bn
4cc
8b-
8b-
=43
4bn
4cc
8b-
8b-
4bn
=44
1cc
=45
4f
4f#
4g
4fn
=46
4f#
4g
4fn
4f#
=47
4g
4b-
4dd
[4ffn
=48
1ff]
=49
2ee-
2cc
=50
8b-
8an
4a-
8g
8g-
4f
!! First ending.
=51
[2e-
4e-]
4r
=52
1r
!! Refrain
=21
2f
2b-
=22
8f
8f
4f#
4g
8fn
8fn
=23
4f#
4g
8fn
8f
4f#
=24
1g
=25
2g
2cc
=26
8g
8g
4g#
4an
8gn
8g
!! page 88
=27
4g#
4an
8gn
8g
4g#
=28
1an
=29
2a-
2a-
=30
4g
4f
4g
4a-
=31
1b-
=32
1cc
=33
4dd
4dd#
4een
4ddn
=34
4dd#
4een
4ddn
4dd#
=35
4een
4ddn
4bn
[(4g
=36
2g]
2f#)
=37
2fn
2b-
=38
8f
8f
4f#
4g
8fn
8f
=39
4f#
4g
8fn
8f
4f#
!! page 89
=40
1g
=41
2b-
2ee-
=42
8b-
8b-
4bn
4cc
8b-
8b-
=43
4bn
4cc
8b-
8b-
4bn
=44
1cc
=45
4f
4f#
4g
4fn
=46
4f#
4g
4fn
4f#
=47
4g
4b-
4dd
[4ffn
=48
1ff]
=49
2ee-
2cc
=50
8b-
8an
4a-
8g
8g-
4f
!! Second ending.
=51
[1e-
=52
2e-_
4e-]
4r
====
*-
